dist/svg/static/car-handover-small.svg

<svg xmlns="http://www.w3.org/2000/svg" width="24" height="24" viewBox="0 0 24 24"><g fill="none" stroke="currentColor" stroke-miterlimit="10"><path d="M15.18 15.872l5.674-1.71s2.646-.594 2.646.874c0 1.244-1.186 1.728-2.002 2.101-2.925 1.338-7.359 3.432-7.359 3.432s-2.22.931-4.586.931H.5v-5c2.447 0 1.781.228 3.915-.872 1.27-.655 2.878-1.128 4.363-1.128H13.5a1.5 1.5 0 0 1 0 3H7"/><ellipse cx="16.498" cy="9.99" rx="1.5" ry="1.51"/><circle cx="7.498" cy="9.99" r="1.51"/><path d="M8.89 10.5h6.2"/><path stroke-linejoin="round" d="M6.106 10.5c-1.891 0-2.606-.507-2.606-.507v-2.79S6.78 4.5 11.108 4.5c3.062 0 4.355 1.788 4.355 1.788l3.698 1.125s.78.136 1.164.914c.17.343.175.832.175 1.357v.816h-2.502"/></g></svg>

<?xml version="1.0" encoding="UTF-8" standalone="no"?>
<svg width="24px" height="24px" viewBox="0 0 24 24" version="1.1" xmlns="http://www.w3.org/2000/svg" xmlns:xlink="http://www.w3.org/1999/xlink">
    <!-- Generator: sketchtool 46.2 (44496) - http://www.bohemiancoding.com/sketch -->
    <title>car-handover-small</title>
    <desc>Created with sketchtool.</desc>
    <defs></defs>
    <g id="icons-published" stroke="none" stroke-width="1" fill="none" fill-rule="evenodd">
        <g id="briefing" transform="translate(-1508.000000, -282.000000)"></g>
        <g id="car-handover-small" stroke="#000000">
            <path d="M15.2,15.9 L20.9,14.2 C20.9,14.2 23.5,13.6 23.5,15.1 C23.5,16.3 22.3,16.8 21.5,17.2 C18.6,18.5 14.1,20.6 14.1,20.6 C14.1,20.6 11.9,21.5 9.5,21.5 L0.5,21.5 L0.5,16.5 C2.9,16.5 2.3,16.7 4.4,15.6 C5.7,14.9 7.3,14.5 8.8,14.5 L13.5,14.5 C14.3,14.5 15,15.2 15,16 C15,16.8 14.3,17.5 13.5,17.5 L7,17.5" id="Shape"></path>
            <circle id="Oval" cx="16.5" cy="10" r="1.5"></circle>
            <circle id="Oval" cx="7.5" cy="10" r="1.5"></circle>
            <path d="M8.9,10.5 L15.1,10.5" id="Shape"></path>
            <path d="M6.1,10.5 C4.2,10.5 3.5,10 3.5,10 L3.5,7.2 C3.5,7.2 6.8,4.5 11.1,4.5 C14.2,4.5 15.5,6.3 15.5,6.3 L19.2,7.4 C19.2,7.4 20,7.5 20.4,8.3 C20.6,8.6 20.6,9.1 20.6,9.7 L20.6,10.5 L18,10.5" id="Shape" stroke-linejoin="round"></path>
        </g>
    </g>
</svg>
